!!!!SEGMENT:pl-wtm--r-730-25-m_moniuszko-stanislaw-dans-ce-fosse-cessons-de-vivre.krn
!!!id: 18xx:1705
!!!COM: Moniuszko, Stanisław
!!!OTL: Dans ce fosse cessons de vivre
!!!PDT:
!!!SMS-siglum: PL-Wtm
!!!SMS-shelfmark: R 730/25/M
!!!NIFC-rismID: 1001099837
!!!URL-scan: http://repozytorium.nifc.pl/skany/pl-wtm-nut--r730m-1-43
!!!ONB-nifc: Skan 0029, No. 777
!!!SMS-variant:
!!!SMS-altvar:
**kern	**kern	**dynam	**kern	**text
*part3	*part2	*part2	*part1	*part1
*staff3	*staff2	*	*staff1	*staff1
*I"Fortepian	*I"Fortepian	*	*I"[Voice]	*
*I'pf	*I'pf	*	*I'[V]	*
*clefF4	*clefG2	*	*clefG2	*
*k[b-e-]	*k[b-e-]	*	*k[b-e-]	*
*M3/8	*M3/8	*	*M3/8	*
=1	=1	=1	=1	=1
!	!	!	!LO:TX:a:t=P:problem:all\right:global	!
!	!	!	!LO:TX:i:a:t=Moderato.	!
!	!	!	!LO:TX:a:t=Stary włóczęga S. Moniuszki.	!
8qqGG/	.	.	.	.
!LO:N:vis=4	!	!LO:DY:b:rj	!	!
4.GGG/	16r	p	4.r	.
.	16g\LL	.	.	.
.	16b-\	.	.	.
.	16dd\	.	.	.
.	16gg\	.	.	.
.	16bb-\JJ	.	.	.
=2	=2	=2	=2	=2
*^	*	*	*	*
8ryy	4.B- 4.G\	(>4ddd\	.	4.r	.
8ryy	.	.	.	.	.
8e-/	.	8ccc#X\)	.	.	.
*v	*v	*	*	*	*
=3	=3	=3	=3	=3
[>4.d [>4.B- [<4.G\	(>4ddd^<\	.	4.r	.
.	8gg\)	.	.	.
=4	=4	=4	=4	=4
!LO:N:vis=4	!	!	!	!
4.d_> 4.B-_> 4.G\_<	(>4bb-^<\	.	4.r	.
.	8dd\)	.	.	.
=5	=5	=5	=5	=5
8d] 8B-] 8G\]	4gg\	.	8r	.
8ryy	.	.	8r	.
8ryy	8b-\	.	8d/	Dans
=6	=6	=6	=6	=6
!	!	!LO:DY:b	!	!
4E-\	(>4ee- (<4e-/	sf	4e-/	ce
8D\	8dd) 8d/)	.	8d/	fos-
=7	=7	=7	=7	=7
4.GG/	8r	.	4b-/	-sé
.	(<8gL 8B-/	.	.	.
.	8d/J)	.	8b-/	ces-
=8	=8	=8	=8	=8
4.D 4.DD/	8r	.	4b-/	-sons
.	(<8f#XL 8c/	.	.	.
.	8d/J)	.	8a/	de
=9	=9	=9	=9	=9
4.G 4.GG/	8r	.	4a/	vi-
.	(<8gL 8B-/	.	.	.
.	8d/J)	.	8g/	-vre.
=10	=10	=10	=10	=10
4.F\	8r	.	8g/	Je
.	(<8gL 8Bn/	.	8a/	fi-
.	8G/J)	.	8bn/	-nis
=11	=11	=11	=11	=11
4.E-\	8r	.	4cc\	vieux,
.	(<8gL 8c/	.	.	.
.	8G/J)	.	8cc#X\	in-
=12	=12	=12	=12	=12
4.D\	8r	.	4dd\	-firme
.	(<8f#XL 8c/	.	.	.
.	8A/J)	.	8ccn\	et
!!LO:LB:g=original
=13	=13	=13	=13	=13
4.GG/	8r	.	4b-\	las.
.	(<8gL 8B-/	.	.	.
.	8G/J)	.	8r	.
=14	=14	=14	=14	=14
4.AA/	8r	.	8f/L	Le
.	(<8gL 8e- 8c/	.	8g/J	.
.	8fJ 8F/)	.	8f/	pas-
=15	=15	=15	=15	=15
4.BB-/	8r	.	8.dd\	-sans
.	(<8fL 8d 8B-/	.	.	.
.	.	.	16dd\	vont
.	8fJ 8F/)	.	8dd\	dire:
=16	=16	=16	=16	=16
4.C/	8r	.	4ff\	il
.	(<8fL 8e- 8A/	.	.	.
.	8fJ 8F/)	.	8ee-\	est
=17	=17	=17	=17	=17
4.D/	8r	.	4.dd\	i-
.	(<8fL 8B-/	.	.	.
.	8fJ 8F/)	.	.	.
=18	=18	=18	=18	=18
*^	*	*	*	*
8r	4.D\	8r	.	4cc\	-vre.
8e-L 8c/	.	8r	.	.	.
8AJ 8F#X/	.	8cc 8a/	.	8cc\	Tant
=19	=19	=19	=19	=19	=19
.	.	8qcc 8qa/	.	.	.
8r	4.D\	8b-L 8g/	.	8b-\	mieux,
8dL 8B-/	.	8a 8f#X/	.	8a/	ils
8B-J 8G/	.	8b-J 8g/	.	8b-\	ne
=20	=20	=20	=20	=20	=20
!	!	!	!LO:HP:b	!	!
8r	4.D\	8ddL 8b-/	>	8dd\	me
8dL 8B-/	.	8cc 8a/	.	8cc\	plain-
8B-J 8G/	.	8b-J 8g/	]]	8b-\	-dront
=21	=21	=21	=21	=21	=21
8r	8D\	4a 4f#X/	.	4a/	pas.
8A/L 8F#X/	8ryy	.	.	.	.
8d/J 8B-/	8ryy	8r	.	8r	.
*v	*v	*	*	*	*
=22	=22	=22	=22	=22
4.f#X 4.d\	8r	.	8r	.
.	8ddL 8a\	.	8r	.
.	8ddJ 8a\	.	8dd\	J'en
=23	=23	=23	=23	=23
*	*^	*	*	*
4.f#X 4.e-\	4fff#X\	8r	.	8cc\	vois
.	.	8ccL 8a\	.	8cc\	qui
.	8ryy	8ccJ 8a\	.	8cc\	de-
*	*v	*v	*	*	*
=24	=24	=24	=24	=24
4.f#X 4.d\	8r	.	8dd\	-tour-
.	8ddL 8a\	.	8dd\	-nent
.	8ddJ 8a\	.	8dd\	la
!!LO:LB:g=original
=25	=25	=25	=25	=25
4.f#X 4.c\	8r	.	4ee-\	tê-
.	8ee-L 8a\	.	.	.
.	8ee-J 8a\	.	8ee-\	-te;
=26	=26	=26	=26	=26
4.f#X 4.d\	8r	.	8.dd\	d'au-
.	8ddL 8a\	.	.	.
.	.	.	16dd\	-tres
.	8ddJ 8a\	.	8dd\	me
=27	=27	=27	=27	=27
4.f#X 4.e-\	8r	.	4cc\	jet-
.	8ccL 8a\	.	.	.
.	8ccJ 8a\	.	8cc\	-tent
=28	=28	=28	=28	=28
4.f#X 4.d\	8r	.	4dd\	quel-
.	8ddL 8a\	.	.	.
.	8ddJ 8a\	.	8dd\	-ques
=29	=29	=29	=29	=29
4.f#X 4.c\	8r	.	4.ee-\	sous.
.	8ee-L 8a\	.	.	.
.	8ee-J 8a\	.	.	.
=30	=30	=30	=30	=30
4.g-X 4.c 4.G\	8r	.	8r	.
.	8ee-L 8b-\	.	8r	.
.	8ee-J 8b-\	.	16ee-\	Cou-
.	.	.	16ee-\	-rez
=31	=31	=31	=31	=31
8fL 8c 8F\	8ee-L 8a\	.	8ee-\L	vi-
8f 8Bn 8F\	8dd 8a\	.	8dd\J	-te,
8fJ 8c 8F\	8ee-J 8a\	.	8ee-\	al-
=32	=32	=32	=32	=32
8e-L 8F\	8ggL 8a\	.	8gg\	-lez
8d 8F\	8ff 8b-\	.	8ff\	à
8cJ 8A\	8ee-J 8f\	.	8ee-\	la
=33	=33	=33	=33	=33
4.B-\	8r	.	4.dd\	fé-
.	8ddL 8f/	.	.	.
!	!	!LO:HP:b	!	!
.	8ddJ 8f/	>	.	.
=34	=34	=34	=34	=34
4.B-\	8r	.	4cc\	-te,
.	8ccL 8a 8f#X/	.	.	.
.	8ccJ 8a 8f#/	.	16cc\	cou-
.	.	.	16cc\	-rez
=35	=35	=35	=35	=35
!	!	!	!LO:TX:i:a:t=ritardando.	!
4.G\	8r	.	8b-/L	vi-
.	8b-L 8g/	.	8a/J	-te[[z]]
.	8b-J 8g/	.	8g/	al-
=36	=36	=36	=36	=36
!	!	!LO:DY:b:rj	!	!
4.E-\	8r	p	8g/	-lez
.	8gL 8c#X 8G/	.	8f/	á
.	8gJ 8c# 8G/	.	8e-/	la
=37	=37	=37	=37	=37
8D\	8f#X 8d 8A/	.	4d/	fe-
8r	8r	.	.	.
8r	8r	.	8d/	-te
!!LO:PB:g=original
=38	=38	=38	=38	=38
!	!	!	!LO:TX:i:a:t=piu lento.	!
4.r	4.r	.	8d/	Vieux
.	.	.	8d/	va-
.	.	.	8d/	-ga-
=39	=39	=39	=39	=39
[>4.G [<4.GG/	[>4.d [<4.B-/	.	4.d/	-bond,
=40	=40	=40	=40	=40
4.G] 4.GG/]	4.d] 4.B-/]	.	8d/	je
.	.	.	8g/	puis
.	.	.	8b-/	mou-
=41	=41	=41	=41	=41
[>4.F [<4.BB-/	[>4.d [<4.B-/	.	4dd\	-rir
.	.	.	8d/	sans
=42	=42	=42	=42	=42
4.F] 4.BB-/]	4.d] 4.B-/]	.	4d/	vous,
.	.	.	8d/	je
=43	=43	=43	=43	=43
4.F#X 4.AA/	4.d 4.c/	.	4d/	puis
.	.	.	8d/	mou-
=44	=44	=44	=44	=44
4.G 4.GG/	4.d 4.B-/	.	4g/	-rir
.	.	.	8b-/	sans
=45	=45	=45	=45	=45
4.DD;</	4.d 4.A 4.F;>/	.	4.dd;>\	vous.
=46	=46	=46	=46	=46
4.r	4.r	.	8dd\	Vieux
.	.	.	8ee-\	va-
.	.	.	8dd\	-ga-
=47	=47	=47	=47	=47
!	!	!LO:DY:b	!	!
[>4.G [<4.GG/	8r	p	4.g/	-bond,
.	8bnL 8f 8d/	.	.	.
!	!	!LO:HP:b	!	!
.	8bJ 8f 8d/	<	.	.
=48	=48	=48	=48	=48
4.G] 4.GG/]	8bnL 8f 8d/	.	8g/	je
.	8b 8f 8d/	.	8a/	puis
.	8bJ 8f 8d/	[[	8bn/	mou-
=49	=49	=49	=49	=49
4.C 4.GG 4.CC/	8r	.	4.cc\	-rir,
.	8ccL 8en 8c/	.	.	.
.	8ccJ 8e 8c/	.	.	.
=50	=50	=50	=50	=50
4.En 4.C 4.EEn/	8r	.	8cc\	je
.	8b-L 8g 8c/	.	8dd\	puis
.	8b-J 8g 8c/	.	8cc\	mou-
!!LO:LB:g=original
=51	=51	=51	=51	=51
4.F 4.C 4.FF/	8r	.	4f/	-rir,
.	8aL 8f 8c/	.	.	.
.	8aJ 8f 8c/	.	8f/	mou-
=52	=52	=52	=52	=52
*	*	*below	*	*
8FF/	8aL 8f/	<	8f/L	-rir
8r	8bn 8g 8en/	.	8g/J	.
8r	8ccJ 8a 8e-X/	[[	8a/	sans
=53	=53	=53	=53	=53
4.BB- 4.FF 4.BBB-/	8r	.	4.b-/	vous,
.	8ddL 8b- 8d/	.	.	.
.	8ddJ 8b- 8d/	>	.	.
=54	=54	=54	=54	=54
4.C 4.CC/	8r	.	8a-X/	je
.	8ccL 8a-X 8e-/	.	8b-/	puis
.	8ccJ 8a- 8e-/	]]	8a-/	mou-
=55	=55	=55	=55	=55
4.D 4.DD/	8r	.	4.g/	-rir
.	8b-L 8g 8d/	.	.	.
.	8b-J 8g 8d/	.	.	.
=56	=56	=56	=56	=56
4.DD/	8r	.	4.f#X/	sans
.	8aL 8f#X 8d/	.	.	.
.	8aJ 8f# 8c/	.	.	.
=57	=57	=57	=57	=57
16qGG/	.	.	.	.
16GGG/	16g 16B-/	.	4g/	vous.
16r	16G/LL	.	.	.
8r	16B-/	.	.	.
.	16d/	.	.	.
8r	16g/	.	8r	.
.	16b-/JJ	.	.	.
=58	=58	=58	=58	=58
*^	*	*	*	*
8ryy	4.B- 4.G\	(>4dd\	.	4.r	.
8ryy	.	.	.	.	.
(>8e-/	.	8cc#X\)	.	.	.
=59	=59	=59	=59	=59	=59
8d/)	8B- 8G\	16dd\	.	4.r	.
.	.	16b-\LL	.	.	.
8r	8ryy	16dd\	.	.	.
.	.	16gg\	.	.	.
8r	8ryy	16bb-\	.	.	.
.	.	16ddd\JJ	.	.	.
*v	*v	*	*	*	*
=60	=60	=60	=60	=60
8D 8BB- 8GG/	4ggg\	.	4.r	.
8r	.	.	.	.
8E- 8C 8GG/	8gg\	.	.	.
=61	=61	=61	=61	=61
4D 4BB- 4GG/	4ggg\	.	4.r	.
8r	8r	.	.	.
=62	=62	=62	=62	=62
4GG 4GGG/	4g 4d 4B-/	.	4.r	.
8r	8r	.	.	.
=63	=63	=63	=63	=63
4GG 4GGG/	4g 4d 4B-/	.	4.r	.
8r	8r	.	.	.
==	==	==	==	==
*-	*-	*-	*-	*-
!!!system-decoration: {(s1),(s2,s3)}
!!!RDF**kern: > = above
!!!RDF**kern: < = below
!!!RDF**dynam: > = "diminuendo"
!!!ENC: Krzysztof Stępień
!!!END: 2021-04-01
!!!EED: Antoni Szymański
!!!EST: 2021-04-20
